; generated by PrusaSlicer 2.6.1+win64 on 2024-02-20 at 20:25:20 UTC


;
;
; 

; external perimeters extrusion width = 0.60mm
; perimeters extrusion width = 0.50mm
; infill extrusion width = 0.50mm
; solid infill extrusion width = 0.50mm
; top infill extrusion width = 0.45mm
; first layer extrusion width = 0.42mm

M73 P0 R110
M73 Q0 S110
M201 X1000 Y1000 Z200 E5000 ; sets maximum accelerations, mm/sec^2
M203 X200 Y200 Z12 E120 ; sets maximum feedrates, mm / sec
M204 S1250 T1250 ; sets acceleration (S) and retract acceleration (R), mm/sec^2
M205 X8.00 Y8.00 Z0.40 E4.50 ; sets the jerk limits, mm/sec
M205 S0 T0 ; sets the minimum extruding and travel feed rate, mm/sec
;TYPE:Custom
M862.3 P "MK3S" ; printer model check
M862.1 P0.4 ; nozzle diameter check
M115 U3.11.0 ; tell printer latest fw version
G90 ; use absolute coordinates
M83 ; extruder relative mode
M104 S215 ; set extruder temp
M140 S60 ; set bed temp
M190 S60 ; wait for bed temp
M109 S215 ; wait for extruder temp
G28 W ; home all without mesh bed level
G80 ; mesh bed leveling

G1 Z0.2 F720
G1 Y-3 F1000 ; go outside print area
G92 E0
G1 X60 E9 F1000 ; intro line
G1 X100 E12.5 F1000 ; intro line

G92 E0
M221 S95

; Don't change E values below. Excessive value can damage the printer.

M907 E538 ; set extruder motor current
G21 ; set units to millimeters
G90 ; use absolute coordinates
M83 ; use relative distances for extrusion
M900 K0.05 ; Filament gcode LA 1.5
M900 K30 ; Filament gcode LA 1.0
M107
;LAYER_CHANGE
;Z:0.2
;HEIGHT:0.2
;BEFORE_LAYER_CHANGE
G92 E0.0
;0.2


M73 P0 R109
G1 E-.8 F2100
G1 Z.4 F720
;AFTER_LAYER_CHANGE
;0.2
G1 X63.015 Y68.693 F10800
G1 Z.2 F720
G1 E.8 F2100
M204 S800
;TYPE:Skirt/Brim
;WIDTH:0.42
G1 F1200
G1 X64.06 Y67.817 E.04275
G1 X65 Y67.623 E.03009
G1 X185 Y67.623 E3.76252
G1 X186.307 Y68.015 E.04278
G1 X187.183 Y69.06 E.04275
G1 X187.377 Y70 E.03009
G1 X187.377 Y140 E2.1948
G1 X186.985 Y141.307 E.04278
G1 X185.94 Y142.183 E.04275
G1 X185 Y142.377 E.03009
G1 X65 Y142.377 E3.76252
G1 X63.693 Y141.985 E.04278
G1 X62.817 Y140.94 E.04275
G1 X62.623 Y140 E.03009
G1 X62.623 Y70 E2.1948
G1 X62.997 Y68.75 E.04091
M204 S1000
; printing object TestRigBase2.stl id:0 copy 0
;WIPE_START
G1 F8640
G1 X64.06 Y67.817 E-.32658
G1 X65 Y67.623 E-.22162
G1 X66.091 Y67.623 E-.2518
;WIPE_END
G1 Z.6 F720
G1 X184.213 Y139.213 F10800
G1 Z.2 F720
G1 E.8 F2100
M204 S800
;TYPE:Perimeter
;WIDTH:0.419999
G1 F1200
G1 X65.787 Y139.213 E3.71316
G1 X65.787 Y70.787 E2.14545
G1 X184.213 Y70.787 E3.71316
M73 Q0 S109
G1 X184.213 Y139.153 E2.14356
M204 S1000
G1 X184.59 Y139.59 F10800
M204 S800
;TYPE:External perimeter
G1 F1200
G1 X65.41 Y139.59 E3.7368
G1 X65.41 Y70.41 E2.16909
G1 X184.59 Y70.41 E3.7368
G1 X184.59 Y139.53 E2.16721
M204 S1000
M73 P0 R108
G1 X184.196 Y139.52 F10800
;WIPE_START
G1 F8640
G1 X181.125 Y139.532 E-.8
;WIPE_END
G1 Z.6 F720
G1 X183.336 Y70.9 F10800
M73 Q1 S109
G1 Z.2 F720
M73 P1 R108
G1 E.8 F2100
M204 S800
;TYPE:Solid infill
;WIDTH:0.420735
G1 F1200
G1 X183.93 Y71.494 E.02639
G1 X183.93 Y72.029 E.01681
G1 X182.971 Y71.07 E.04261
G1 X182.437 Y71.07 E.01678
G1 X183.93 Y72.563 E.06633
G1 X183.93 Y73.097 E.01678
G1 X181.903 Y71.07 E.09006
G1 X181.368 Y71.07 E.01681
G1 X183.93 Y73.632 E.11382
G1 X183.93 Y74.166 E.01678
G1 X180.834 Y71.07 E.13755
G1 X180.3 Y71.07 E.01678
G1 X183.93 Y74.7 E.16127
G1 X183.93 Y75.235 E.01681
G1 X179.765 Y71.07 E.18504
G1 X179.231 Y71.07 E.01678
G1 X183.93 Y75.769 E.20877
G1 X183.93 Y76.303 E.01678
G1 X178.697 Y71.07 E.23249
G1 X178.163 Y71.07 E.01678
G1 X183.93 Y76.837 E.25622
G1 X183.93 Y77.372 E.01681
G1 X177.628 Y71.07 E.27999
G1 X177.094 Y71.07 E.01678
G1 X183.93 Y77.906 E.30371
G1 X183.93 Y78.44 E.01678
G1 X176.56 Y71.07 E.32744
G1 X176.025 Y71.07 E.01681
G1 X183.93 Y78.975 E.3512
G1 X183.93 Y79.509 E.01678
G1 X175.491 Y71.07 E.37493
G1 X174.957 Y71.07 E.01678
G1 X183.93 Y80.043 E.39865
G1 X183.93 Y80.578 E.01681
G1 X174.422 Y71.07 E.42242
G1 X173.888 Y71.07 E.01678
G1 X183.93 Y81.112 E.44615
G1 X183.93 Y81.646 E.01678
G1 X173.354 Y71.07 E.46987
G1 X172.819 Y71.07 E.01681
G1 X183.93 Y82.181 E.49364
G1 X183.93 Y82.715 E.01678
G1 X172.285 Y71.07 E.51737
G1 X171.751 Y71.07 E.01678
G1 X183.93 Y83.249 E.54109
G1 X183.93 Y83.784 E.01681
G1 X171.217 Y71.07 E.56484
G1 X170.682 Y71.07 E.01681
G1 X183.93 Y84.318 E.58858
G1 X183.93 Y84.852 E.01678
G1 X170.148 Y71.07 E.61231
G1 X169.614 Y71.07 E.01678
G1 X183.93 Y85.386 E.63603
G1 X183.93 Y85.921 E.01681
G1 X169.079 Y71.07 E.6598
G1 X168.545 Y71.07 E.01678
G1 X183.93 Y86.455 E.68353
G1 X183.93 Y86.989 E.01678
G1 X168.011 Y71.07 E.70725
G1 X167.476 Y71.07 E.01681
G1 X183.93 Y87.524 E.73102
G1 X183.93 Y88.058 E.01678
G1 X166.942 Y71.07 E.75475
G1 X166.408 Y71.07 E.01678
G1 X183.93 Y88.592 E.77847
G1 X183.93 Y89.127 E.01681
G1 X165.873 Y71.07 E.80224
G1 X165.339 Y71.07 E.01678
G1 X183.93 Y89.661 E.82596
G1 X183.93 Y90.195 E.01678
G1 X164.805 Y71.07 E.84969
G1 X164.27 Y71.07 E.01681
G1 X183.93 Y90.73 E.87346
G1 X183.93 Y91.264 E.01678
G1 X163.736 Y71.07 E.89718
G1 X163.202 Y71.07 E.01678
G1 X183.93 Y91.798 E.92091
G1 X183.93 Y92.332 E.01678
M73 Q1 S108
G1 X162.668 Y71.07 E.94463
G1 X162.133 Y71.07 E.01681
G1 X183.93 Y92.867 E.9684
G1 X183.93 Y93.401 E.01678
G1 X161.599 Y71.07 E.99213
G1 X161.065 Y71.07 E.01678
G1 X183.93 Y93.935 E1.01585
G1 X183.93 Y94.47 E.01681
G1 X160.53 Y71.07 E1.03962
G1 X159.996 Y71.07 E.01678
G1 X183.93 Y95.004 E1.06334
G1 X183.93 Y95.538 E.01678
G1 X159.462 Y71.07 E1.08707
G1 X158.927 Y71.07 E.01681
G1 X183.93 Y96.073 E1.11084
G1 X183.93 Y96.607 E.01678
G1 X158.393 Y71.07 E1.13456
G1 X157.859 Y71.07 E.01678
G1 X183.93 Y97.141 E1.15829
G1 X183.93 Y97.676 E.01681
G1 X157.324 Y71.07 E1.18206
G1 X156.79 Y71.07 E.01678
G1 X183.93 Y98.21 E1.20578
G1 X183.93 Y98.744 E.01678
G1 X156.256 Y71.07 E1.2295
G1 X155.721 Y71.07 E.01681
G1 X183.93 Y99.279 E1.25327
G1 X183.93 Y99.813 E.01678
M73 P1 R107
G1 X155.187 Y71.07 E1.277
G1 X154.653 Y71.07 E.01678
G1 X183.93 Y100.347 E1.30072
G1 X183.93 Y100.881 E.01678
G1 X154.119 Y71.07 E1.32445
G1 X153.584 Y71.07 E.01681
G1 X183.93 Y101.416 E1.34822
G1 X183.93 Y101.95 E.01678
G1 X153.05 Y71.07 E1.37194
G1 X152.516 Y71.07 E.01678
M73 P2 R107
M73 Q2 S108
G1 X183.93 Y102.484 E1.39567
G1 X183.93 Y103.019 E.01681
G1 X151.981 Y71.07 E1.41944
G1 X151.447 Y71.07 E.01678
G1 X183.93 Y103.553 E1.44316
G1 X183.93 Y104.087 E.01678
G1 X150.913 Y71.07 E1.46688
G1 X150.378 Y71.07 E.01681
G1 X183.93 Y104.622 E1.49065
G1 X183.93 Y105.156 E.01678
G1 X149.844 Y71.07 E1.51438
G1 X149.31 Y71.07 E.01678
G1 X183.93 Y105.69 E1.5381
G1 X183.93 Y106.225 E.01681
G1 X148.775 Y71.07 E1.56187
G1 X148.241 Y71.07 E.01678
G1 X183.93 Y106.759 E1.5856
G1 X183.93 Y107.293 E.01678
G1 X147.707 Y71.07 E1.60932
G1 X147.173 Y71.07 E.01678
M73 Q2 S107
G1 X183.93 Y107.828 E1.63307
G1 X183.93 Y108.362 E.01678
G1 X146.638 Y71.07 E1.65681
G1 X146.104 Y71.07 E.01678
G1 X183.93 Y108.896 E1.68054
G1 X183.93 Y109.43 E.01678
G1 X145.57 Y71.07 E1.70426
G1 X145.035 Y71.07 E.01681
G1 X183.93 Y109.965 E1.72803
G1 X183.93 Y110.499 E.01678
G1 X144.501 Y71.07 E1.75176
G1 X143.967 Y71.07 E.01678
G1 X183.93 Y111.033 E1.77548
G1 X183.93 Y111.568 E.01681
G1 X143.432 Y71.07 E1.79925
G1 X142.898 Y71.07 E.01678
G1 X183.93 Y112.102 E1.82298
G1 X183.93 Y112.636 E.01678
M73 P2 R106
G1 X142.364 Y71.07 E1.8467
G1 X141.829 Y71.07 E.01681
G1 X183.93 Y113.171 E1.87047
G1 X183.93 Y113.705 E.01678
G1 X141.295 Y71.07 E1.89419
G1 X140.761 Y71.07 E.01678
G1 X183.93 Y114.239 E1.91792
G1 X183.93 Y114.774 E.01681
G1 X140.226 Y71.07 E1.94169
G1 X139.692 Y71.07 E.01678
G1 X183.93 Y115.308 E1.96541
G1 X183.93 Y115.842 E.01678
M73 P3 R106
M73 Q3 S107
G1 X139.158 Y71.07 E1.98914
G1 X138.624 Y71.07 E.01678
G1 X183.93 Y116.376 E2.01286
G1 X183.93 Y116.911 E.01681
G1 X138.089 Y71.07 E2.03663
G1 X137.555 Y71.07 E.01678
G1 X183.93 Y117.445 E2.06036
G1 X183.93 Y117.979 E.01678
G1 X137.021 Y71.07 E2.08408
G1 X136.486 Y71.07 E.01681
M73 Q3 S106
G1 X183.93 Y118.514 E2.10785
G1 X183.93 Y119.048 E.01678
G1 X135.952 Y71.07 E2.13157
G1 X135.418 Y71.07 E.01678
G1 X183.93 Y119.582 E2.1553
G1 X183.93 Y120.117 E.01681
G1 X134.883 Y71.07 E2.17907
G1 X134.349 Y71.07 E.01678
G1 X183.93 Y120.651 E2.20279
G1 X183.93 Y121.185 E.01678
G1 X133.815 Y71.07 E2.22652
G1 X133.28 Y71.07 E.01681
G1 X183.93 Y121.72 E2.25029
G1 X183.93 Y122.254 E.01678
M73 P3 R105
G1 X132.746 Y71.07 E2.27401
G1 X132.212 Y71.07 E.01678
G1 X183.93 Y122.788 E2.29774
G1 X183.93 Y123.323 E.01681
G1 X131.677 Y71.07 E2.3215
G1 X131.143 Y71.07 E.01678
G1 X183.93 Y123.857 E2.34523
G1 X183.93 Y124.391 E.01678
G1 X130.609 Y71.07 E2.36895
G1 X130.075 Y71.07 E.01678
G1 X183.93 Y124.925 E2.39268
G1 X183.93 Y125.46 E.01681
M73 P4 R105
G1 X129.54 Y71.07 E2.41645
G1 X129.006 Y71.07 E.01678
M73 Q4 S106
G1 X183.93 Y125.994 E2.44017
G1 X183.93 Y126.528 E.01678
G1 X128.472 Y71.07 E2.4639
G1 X127.937 Y71.07 E.01681
M73 Q4 S105
G1 X183.93 Y127.063 E2.48767
G1 X183.93 Y127.597 E.01678
G1 X127.403 Y71.07 E2.51139
G1 X126.869 Y71.07 E.01678
G1 X183.93 Y128.131 E2.53511
G1 X183.93 Y128.666 E.01681
G1 X126.334 Y71.07 E2.55888
G1 X125.8 Y71.07 E.01678
G1 X183.93 Y129.2 E2.58261
G1 X183.93 Y129.734 E.01678
G1 X125.266 Y71.07 E2.60633
G1 X124.731 Y71.07 E.01681
G1 X183.93 Y130.269 E2.6301
G1 X183.93 Y130.803 E.01678
M73 P4 R104
G1 X124.197 Y71.07 E2.65383
G1 X123.663 Y71.07 E.01678
G1 X183.93 Y131.337 E2.67755
G1 X183.93 Y131.872 E.01681
G1 X123.129 Y71.07 E2.7013
G1 X122.594 Y71.07 E.01681
G1 X183.93 Y132.406 E2.72505
G1 X183.93 Y132.94 E.01678
G1 X122.06 Y71.07 E2.74877
G1 X121.526 Y71.07 E.01678
G1 X183.93 Y133.474 E2.77249
G1 X183.93 Y134.009 E.01681
M73 P5 R104
M73 Q5 S105
G1 X120.991 Y71.07 E2.79626
G1 X120.457 Y71.07 E.01678
G1 X183.93 Y134.543 E2.81999
G1 X183.93 Y135.077 E.01678
M73 Q5 S104
G1 X119.923 Y71.07 E2.84371
G1 X119.388 Y71.07 E.01681
G1 X183.93 Y135.612 E2.86748
G1 X183.93 Y136.146 E.01678
G1 X118.854 Y71.07 E2.89121
G1 X118.32 Y71.07 E.01678
G1 X183.93 Y136.68 E2.91493
G1 X183.93 Y137.215 E.01681
G1 X117.785 Y71.07 E2.9387
G1 X117.251 Y71.07 E.01678
M73 P5 R103
G1 X183.93 Y137.749 E2.96242
G1 X183.93 Y138.283 E.01678
G1 X116.717 Y71.07 E2.98615
G1 X116.182 Y71.07 E.01681
G1 X183.93 Y138.818 E3.00992
G1 X183.93 Y138.93 E.00352
G1 X183.508 Y138.93 E.01326
G1 X115.648 Y71.07 E3.01489
G1 X115.114 Y71.07 E.01678
G1 X182.974 Y138.93 E3.01489
G1 X182.44 Y138.93 E.01678
G1 X114.58 Y71.07 E3.01489
G1 X114.045 Y71.07 E.01681
G1 X181.905 Y138.93 E3.01489
G1 X181.371 Y138.93 E.01678
M73 P6 R103
M73 Q5 S103
G1 X113.511 Y71.07 E3.01489
G1 X112.977 Y71.07 E.01678
M73 Q6 S103
G1 X180.837 Y138.93 E3.01489
G1 X180.303 Y138.93 E.01678
G1 X112.442 Y71.07 E3.01492
G1 X111.908 Y71.07 E.01678
G1 X179.768 Y138.93 E3.01489
G1 X179.234 Y138.93 E.01678
G1 X111.374 Y71.07 E3.01489
G1 X110.839 Y71.07 E.01681
M73 P6 R102
G1 X178.7 Y138.93 E3.01492
G1 X178.165 Y138.93 E.01681
G1 X110.305 Y71.07 E3.01489
G1 X109.771 Y71.07 E.01678
G1 X177.631 Y138.93 E3.01489
G1 X177.097 Y138.93 E.01678
G1 X109.236 Y71.07 E3.01492
G1 X108.702 Y71.07 E.01678
G1 X176.562 Y138.93 E3.01489
G1 X176.028 Y138.93 E.01678
G1 X108.168 Y71.07 E3.01489
G1 X107.633 Y71.07 E.01681
G1 X175.494 Y138.93 E3.01492
G1 X174.959 Y138.93 E.01681
G1 X107.099 Y71.07 E3.01489
G1 X106.565 Y71.07 E.01678
M73 Q6 S102
G1 X174.425 Y138.93 E3.01489
G1 X173.891 Y138.93 E.01678
M73 P7 R102
M73 Q7 S102
G1 X106.031 Y71.07 E3.01489
G1 X105.496 Y71.07 E.01681
G1 X173.356 Y138.93 E3.01489
G1 X172.822 Y138.93 E.01678
G1 X104.962 Y71.07 E3.01489
G1 X104.428 Y71.07 E.01678
G1 X172.288 Y138.93 E3.01489
G1 X171.754 Y138.93 E.01678
M73 P7 R101
G1 X103.893 Y71.07 E3.01492
G1 X103.359 Y71.07 E.01678
G1 X171.219 Y138.93 E3.01489
G1 X170.685 Y138.93 E.01678
G1 X102.825 Y71.07 E3.01489
G1 X102.29 Y71.07 E.01681
G1 X170.151 Y138.93 E3.01492
G1 X169.616 Y138.93 E.01681
G1 X101.756 Y71.07 E3.01489
G1 X101.222 Y71.07 E.01678
G1 X169.082 Y138.93 E3.01489
G1 X168.548 Y138.93 E.01678
G1 X100.687 Y71.07 E3.01492
G1 X100.153 Y71.07 E.01678
M73 Q7 S101
G1 X168.013 Y138.93 E3.01489
G1 X167.479 Y138.93 E.01678
G1 X99.619 Y71.07 E3.01489
G1 X99.085 Y71.07 E.01678
G1 X166.945 Y138.93 E3.01489
G1 X166.41 Y138.93 E.01681
M73 P8 R101
M73 Q8 S101
G1 X98.55 Y71.07 E3.01489
G1 X98.016 Y71.07 E.01678
G1 X165.876 Y138.93 E3.01489
G1 X165.342 Y138.93 E.01678
M73 P8 R100
G1 X97.482 Y71.07 E3.01489
G1 X96.947 Y71.07 E.01681
G1 X164.807 Y138.93 E3.01489
G1 X164.273 Y138.93 E.01678
G1 X96.413 Y71.07 E3.01489
G1 X95.879 Y71.07 E.01678
G1 X163.739 Y138.93 E3.01489
G1 X163.205 Y138.93 E.01678
G1 X95.344 Y71.07 E3.01492
G1 X94.81 Y71.07 E.01678
G1 X162.67 Y138.93 E3.01489
G1 X162.136 Y138.93 E.01678
G1 X94.276 Y71.07 E3.01489
G1 X93.741 Y71.07 E.01681
G1 X161.602 Y138.93 E3.01492
G1 X161.067 Y138.93 E.01681
M73 Q8 S100
G1 X93.207 Y71.07 E3.01489
G1 X92.673 Y71.07 E.01678
G1 X160.533 Y138.93 E3.01489
G1 X159.999 Y138.93 E.01678
G1 X92.138 Y71.07 E3.01492
G1 X91.604 Y71.07 E.01678
M73 P9 R100
G1 X159.464 Y138.93 E3.01489
G1 X158.93 Y138.93 E.01678
M73 Q9 S100
G1 X91.07 Y71.07 E3.01489
G1 X90.536 Y71.07 E.01678
M73 P9 R99
G1 X158.396 Y138.93 E3.01489
G1 X157.861 Y138.93 E.01681
G1 X90.001 Y71.07 E3.01489
G1 X89.467 Y71.07 E.01678
G1 X157.327 Y138.93 E3.01489
G1 X156.793 Y138.93 E.01678
G1 X88.933 Y71.07 E3.01489
G1 X88.398 Y71.07 E.01681
G1 X156.259 Y138.93 E3.01492
G1 X155.724 Y138.93 E.01681
G1 X87.864 Y71.07 E3.01489
G1 X87.33 Y71.07 E.01678
G1 X155.19 Y138.93 E3.01489
G1 X154.656 Y138.93 E.01678
M73 Q9 S99
G1 X86.795 Y71.07 E3.01492
G1 X86.261 Y71.07 E.01678
G1 X154.121 Y138.93 E3.01489
G1 X153.587 Y138.93 E.01678
G1 X85.727 Y71.07 E3.01489
G1 X85.192 Y71.07 E.01681
G1 X153.053 Y138.93 E3.01492
G1 X152.518 Y138.93 E.01681
G1 X84.658 Y71.07 E3.01489
G1 X84.124 Y71.07 E.01678
M73 P10 R98
M73 Q10 S99
G1 X151.984 Y138.93 E3.01489
G1 X151.45 Y138.93 E.01678
G1 X83.589 Y71.07 E3.01492
G1 X83.055 Y71.07 E.01678
G1 X150.915 Y138.93 E3.01489
G1 X150.381 Y138.93 E.01678
G1 X82.521 Y71.07 E3.01489
G1 X81.987 Y71.07 E.01678
G1 X149.847 Y138.93 E3.01489
G1 X149.312 Y138.93 E.01681
G1 X81.452 Y71.07 E3.01489
G1 X80.918 Y71.07 E.01678
G1 X148.778 Y138.93 E3.01489
G1 X148.244 Y138.93 E.01678
M73 Q10 S98
G1 X80.384 Y71.07 E3.01489
G1 X79.849 Y71.07 E.01681
G1 X147.71 Y138.93 E3.01492
G1 X147.175 Y138.93 E.01681
G1 X79.315 Y71.07 E3.01489
G1 X78.781 Y71.07 E.01678
G1 X146.641 Y138.93 E3.01489
G1 X146.107 Y138.93 E.01678
G1 X78.246 Y71.07 E3.01492
G1 X77.712 Y71.07 E.01678
M73 P10 R97
G1 X145.572 Y138.93 E3.01489
G1 X145.038 Y138.93 E.01678
M73 P11 R97
G1 X77.178 Y71.07 E3.01489
G1 X76.643 Y71.07 E.01681
M73 Q11 S98
G1 X144.504 Y138.93 E3.01492
G1 X143.969 Y138.93 E.01681
G1 X76.109 Y71.07 E3.01489
G1 X75.575 Y71.07 E.01678
G1 X143.435 Y138.93 E3.01489
G1 X142.901 Y138.93 E.01678
G1 X75.041 Y71.07 E3.01489
G1 X74.506 Y71.07 E.01681
G1 X142.366 Y138.93 E3.01489
G1 X141.832 Y138.93 E.01678
G1 X73.972 Y71.07 E3.01489
G1 X73.438 Y71.07 E.01678
M73 Q11 S97
G1 X141.298 Y138.93 E3.01489
G1 X140.763 Y138.93 E.01681
G1 X72.903 Y71.07 E3.01489
G1 X72.369 Y71.07 E.01678
G1 X140.229 Y138.93 E3.01489
G1 X139.695 Y138.93 E.01678
G1 X71.835 Y71.07 E3.01489
G1 X71.3 Y71.07 E.01681
G1 X139.161 Y138.93 E3.01492
G1 X138.626 Y138.93 E.01681
M73 P11 R96
G1 X70.766 Y71.07 E3.01489
G1 X70.232 Y71.07 E.01678
G1 X138.092 Y138.93 E3.01489
G1 X137.558 Y138.93 E.01678
M73 P12 R96
G1 X69.697 Y71.07 E3.01492
G1 X69.163 Y71.07 E.01678
M73 Q12 S97
G1 X137.023 Y138.93 E3.01489
G1 X136.489 Y138.93 E.01678
G1 X68.629 Y71.07 E3.01489
G1 X68.094 Y71.07 E.01681
G1 X135.955 Y138.93 E3.01492
G1 X135.42 Y138.93 E.01681
G1 X67.56 Y71.07 E3.01489
G1 X67.026 Y71.07 E.01678
M73 Q12 S96
G1 X134.886 Y138.93 E3.01489
G1 X134.352 Y138.93 E.01678
G1 X66.492 Y71.07 E3.01489
G1 X66.07 Y71.07 E.01326
G1 X66.07 Y71.183 E.00355
G1 X133.817 Y138.93 E3.00987
G1 X133.283 Y138.93 E.01678
G1 X66.07 Y71.717 E2.98615
G1 X66.07 Y72.251 E.01678
G1 X132.749 Y138.93 E2.96242
G1 X132.215 Y138.93 E.01678
M73 P12 R95
G1 X66.07 Y72.785 E2.9387
G1 X66.07 Y73.32 E.01681
G1 X131.68 Y138.93 E2.91493
G1 X131.146 Y138.93 E.01678
G1 X66.07 Y73.854 E2.89121
