; generated by PrusaSlicer 2.7.0+win64 on 2024-02-19 at 12:05:19 UTC


;
;
; 

; external perimeters extrusion width = 0.60mm
; perimeters extrusion width = 0.50mm
; infill extrusion width = 0.50mm
; solid infill extrusion width = 0.50mm
; top infill extrusion width = 0.45mm
; first layer extrusion width = 0.42mm

M73 P0 R85
M73 Q0 S86
M201 X1000 Y1000 Z200 E5000 ; sets maximum accelerations, mm/sec^2
M203 X200 Y200 Z12 E120 ; sets maximum feedrates, mm / sec
M204 S1250 T1250 ; sets acceleration (S) and retract acceleration (R), mm/sec^2
M205 X8.00 Y8.00 Z0.40 E4.50 ; sets the jerk limits, mm/sec
M205 S0 T0 ; sets the minimum extruding and travel feed rate, mm/sec

; printing object TestRigBase.stl id:0 copy 0
; stop printing object TestRigBase.stl id:0 copy 0

;TYPE:Custom
M862.3 P "MK3S" ; printer model check
M862.1 P0.4 ; nozzle diameter check
M115 U3.13.2 ; tell printer latest fw version
G90 ; use absolute coordinates
M83 ; extruder relative mode
M104 S215 ; set extruder temp
M140 S60 ; set bed temp
M190 S60 ; wait for bed temp
M109 S215 ; wait for extruder temp
G28 W ; home all without mesh bed level
G80 X62.4344 Y76.4344 W125.131 H57.1312 ; mesh bed levelling

G1 Z0.2 F720
G1 Y-3 F1000 ; go outside print area
G92 E0
G1 X60 E9 F1000 ; intro line
G1 X100 E12.5 F1000 ; intro line

G92 E0
M221 S95

; Don't change E values below. Excessive value can damage the printer.

M907 E538 ; set extruder motor current
G21 ; set units to millimeters
G90 ; use absolute coordinates
M83 ; use relative distances for extrusion
M900 K0.05 ; Filament gcode LA 1.5
M900 K30 ; Filament gcode LA 1.0

M107
;LAYER_CHANGE
;Z:0.2
;HEIGHT:0.2
;BEFORE_LAYER_CHANGE
G92 E0.0
;0.2


G1 E-.8 F2100
G1 Z.2 F720
;AFTER_LAYER_CHANGE
;0.2
G1 X64.06 Y76.817 F10800
G1 Z.2 F720
G1 E.8 F2100
M204 S800
;TYPE:Skirt/Brim
;WIDTH:0.42
G1 F1200
G1 X65 Y76.623 E.03009
G1 X185 Y76.623 E3.76252
G1 X186.307 Y77.015 E.04278
M73 Q0 S85
G1 X187.183 Y78.06 E.04275
G1 X187.377 Y79 E.03009
G1 X187.377 Y131 E1.63042
G1 X186.985 Y132.307 E.04278
G1 X185.94 Y133.183 E.04275
G1 X185 Y133.377 E.03009
G1 X65 Y133.377 E3.76252
G1 X63.693 Y132.985 E.04278
G1 X62.817 Y131.94 E.04275
G1 X62.623 Y131 E.03009
G1 X62.623 Y79 E1.63042
G1 X63.015 Y77.693 E.04278
G1 X64.014 Y76.855 E.04088
M204 S1000
; printing object TestRigBase.stl id:0 copy 0
;WIPE_START
G1 F8640
G1 X64.06 Y76.817 E-.01378
G1 X65 Y76.623 E-.22162
G1 X67.445 Y76.623 E-.5646
;WIPE_END
G1 Z.6 F720
G1 X184.213 Y130.213 F10800
G1 Z.2 F720
G1 E.8 F2100
M204 S800
;TYPE:Perimeter
;WIDTH:0.419999
G1 F1200
G1 X65.787 Y130.213 E3.71316
G1 X65.787 Y79.787 E1.58107
G1 X184.213 Y79.787 E3.71316
G1 X184.213 Y105 E.79053
M73 P0 R84
G1 X184.213 Y130.153 E.78865
M204 S1000
G1 X184.59 Y130.59 F10800
M204 S800
;TYPE:External perimeter
G1 F1200
G1 X65.41 Y130.59 E3.7368
G1 X65.41 Y79.41 E1.60471
G1 X184.59 Y79.41 E3.7368
M73 P1 R84
M73 Q1 S85
G1 X184.59 Y105 E.80236
G1 X184.59 Y130.53 E.80047
M204 S1000
;WIPE_START
G1 F8640
G1 X184.59 Y130.59 E-.01385
G1 X181.185 Y130.59 E-.78615
;WIPE_END
G1 Z.6 F720
G1 X183.28 Y79.957 F10800
G1 Z.2 F720
G1 E.8 F2100
M204 S800
;TYPE:Solid infill
;WIDTH:0.420601
G1 F1200
G1 X183.874 Y80.551 E.02638
G1 X183.874 Y81.085 E.01677
G1 X182.915 Y80.126 E.04259
G1 X182.381 Y80.126 E.01677
G1 X183.874 Y81.619 E.06631
G1 X183.874 Y82.153 E.01677
G1 X181.847 Y80.126 E.09002
G1 X181.313 Y80.126 E.01677
G1 X183.874 Y82.687 E.11374
G1 X183.874 Y83.221 E.01677
G1 X180.779 Y80.126 E.13746
G1 X180.245 Y80.126 E.01677
G1 X183.874 Y83.755 E.16117
G1 X183.874 Y84.289 E.01677
G1 X179.711 Y80.126 E.18489
G1 X179.176 Y80.126 E.0168
G1 X183.874 Y84.824 E.20865
G1 X183.874 Y85.358 E.01677
G1 X178.642 Y80.126 E.23237
G1 X178.108 Y80.126 E.01677
G1 X183.874 Y85.892 E.25608
G1 X183.874 Y86.426 E.01677
G1 X177.574 Y80.126 E.2798
G1 X177.04 Y80.126 E.01677
G1 X183.874 Y86.96 E.30351
G1 X183.874 Y87.494 E.01677
G1 X176.506 Y80.126 E.32723
G1 X175.972 Y80.126 E.01677
G1 X183.874 Y88.028 E.35095
G1 X183.874 Y88.562 E.01677
G1 X175.438 Y80.126 E.37466
G1 X174.903 Y80.126 E.0168
G1 X183.874 Y89.097 E.39842
G1 X183.874 Y89.631 E.01677
G1 X174.369 Y80.126 E.42214
G1 X173.835 Y80.126 E.01677
G1 X183.874 Y90.165 E.44586
G1 X183.874 Y90.699 E.01677
G1 X173.301 Y80.126 E.46957
G1 X172.767 Y80.126 E.01677
M73 Q1 S84
G1 X183.874 Y91.233 E.49329
G1 X183.874 Y91.767 E.01677
G1 X172.233 Y80.126 E.517
G1 X171.699 Y80.126 E.01677
G1 X183.874 Y92.301 E.54072
G1 X183.874 Y92.835 E.01677
G1 X171.165 Y80.126 E.56444
G1 X170.63 Y80.126 E.0168
G1 X183.874 Y93.37 E.5882
G1 X183.874 Y93.904 E.01677
G1 X170.096 Y80.126 E.61191
G1 X169.562 Y80.126 E.01677
G1 X183.874 Y94.438 E.63563
G1 X183.874 Y94.972 E.01677
G1 X169.028 Y80.126 E.65935
G1 X168.494 Y80.126 E.01677
G1 X183.874 Y95.506 E.68306
G1 X183.874 Y96.04 E.01677
G1 X167.96 Y80.126 E.70678
G1 X167.426 Y80.126 E.01677
G1 X183.874 Y96.574 E.73049
G1 X183.874 Y97.108 E.01677
G1 X166.892 Y80.126 E.75421
G1 X166.357 Y80.126 E.0168
G1 X183.874 Y97.643 E.77797
G1 X183.874 Y98.177 E.01677
G1 X165.823 Y80.126 E.80169
G1 X165.289 Y80.126 E.01677
G1 X183.874 Y98.711 E.8254
G1 X183.874 Y99.245 E.01677
G1 X164.755 Y80.126 E.84912
G1 X164.221 Y80.126 E.01677
G1 X183.874 Y99.779 E.87284
G1 X183.874 Y100.313 E.01677
G1 X163.687 Y80.126 E.89655
G1 X163.153 Y80.126 E.01677
G1 X183.874 Y100.847 E.92027
G1 X183.874 Y101.381 E.01677
G1 X162.619 Y80.126 E.94399
G1 X162.085 Y80.126 E.01677
G1 X183.874 Y101.915 E.9677
G1 X183.874 Y102.45 E.0168
G1 X161.55 Y80.126 E.99146
G1 X161.016 Y80.126 E.01677
G1 X183.874 Y102.984 E1.01518
G1 X183.874 Y103.518 E.01677
G1 X160.482 Y80.126 E1.03889
G1 X159.948 Y80.126 E.01677
M73 P1 R83
G1 X183.874 Y104.052 E1.06261
G1 X183.874 Y104.586 E.01677
G1 X159.414 Y80.126 E1.08633
G1 X158.88 Y80.126 E.01677
M73 P2 R83
M73 Q2 S84
G1 X183.874 Y105.12 E1.11004
G1 X183.874 Y105.654 E.01677
G1 X158.346 Y80.126 E1.13376
G1 X157.812 Y80.126 E.01677
G1 X183.874 Y106.188 E1.15748
G1 X183.874 Y106.723 E.0168
G1 X157.277 Y80.126 E1.18124
G1 X156.743 Y80.126 E.01677
G1 X183.874 Y107.257 E1.20495
G1 X183.874 Y107.791 E.01677
G1 X156.209 Y80.126 E1.22867
G1 X155.675 Y80.126 E.01677
G1 X183.874 Y108.325 E1.25238
G1 X183.874 Y108.859 E.01677
G1 X155.141 Y80.126 E1.2761
G1 X154.607 Y80.126 E.01677
G1 X183.874 Y109.393 E1.29982
G1 X183.874 Y109.927 E.01677
G1 X154.073 Y80.126 E1.32353
G1 X153.539 Y80.126 E.01677
G1 X183.874 Y110.461 E1.34725
G1 X183.874 Y110.996 E.0168
G1 X153.004 Y80.126 E1.37101
G1 X152.47 Y80.126 E.01677
G1 X183.874 Y111.53 E1.39473
G1 X183.874 Y112.064 E.01677
M73 Q2 S83
G1 X151.936 Y80.126 E1.41844
G1 X151.402 Y80.126 E.01677
G1 X183.874 Y112.598 E1.44216
G1 X183.874 Y113.132 E.01677
G1 X150.868 Y80.126 E1.46588
G1 X150.334 Y80.126 E.01677
G1 X183.874 Y113.666 E1.48959
G1 X183.874 Y114.2 E.01677
G1 X149.8 Y80.126 E1.51331
G1 X149.266 Y80.126 E.01677
G1 X183.874 Y114.734 E1.53702
G1 X183.874 Y115.269 E.0168
G1 X148.731 Y80.126 E1.56078
G1 X148.197 Y80.126 E.01677
G1 X183.874 Y115.803 E1.5845
G1 X183.874 Y116.337 E.01677
G1 X147.663 Y80.126 E1.60822
G1 X147.129 Y80.126 E.01677
G1 X183.874 Y116.871 E1.63193
G1 X183.874 Y117.405 E.01677
M73 P3 R83
M73 Q3 S83
G1 X146.595 Y80.126 E1.65565
G1 X146.061 Y80.126 E.01677
G1 X183.874 Y117.939 E1.67937
G1 X183.874 Y118.473 E.01677
M73 P3 R82
G1 X145.527 Y80.126 E1.70308
G1 X144.993 Y80.126 E.01677
G1 X183.874 Y119.007 E1.7268
G1 X183.874 Y119.542 E.0168
G1 X144.459 Y80.126 E1.75054
G1 X143.924 Y80.126 E.0168
G1 X183.874 Y120.076 E1.77427
G1 X183.874 Y120.61 E.01677
G1 X143.39 Y80.126 E1.79799
G1 X142.856 Y80.126 E.01677
G1 X183.874 Y121.144 E1.82171
G1 X183.874 Y121.678 E.01677
G1 X142.322 Y80.126 E1.84542
G1 X141.788 Y80.126 E.01677
G1 X183.874 Y122.212 E1.86914
G1 X183.874 Y122.746 E.01677
G1 X141.254 Y80.126 E1.89286
G1 X140.72 Y80.126 E.01677
G1 X183.874 Y123.28 E1.91657
G1 X183.874 Y123.814 E.01677
G1 X140.186 Y80.126 E1.94029
G1 X139.651 Y80.126 E.0168
M73 Q3 S82
G1 X183.874 Y124.349 E1.96405
G1 X183.874 Y124.883 E.01677
G1 X139.117 Y80.126 E1.98777
G1 X138.583 Y80.126 E.01677
G1 X183.874 Y125.417 E2.01148
G1 X183.874 Y125.951 E.01677
G1 X138.049 Y80.126 E2.0352
G1 X137.515 Y80.126 E.01677
G1 X183.874 Y126.485 E2.05891
G1 X183.874 Y127.019 E.01677
M73 P4 R82
M73 Q4 S82
G1 X136.981 Y80.126 E2.08263
G1 X136.447 Y80.126 E.01677
G1 X183.874 Y127.553 E2.10635
G1 X183.874 Y128.087 E.01677
G1 X135.913 Y80.126 E2.13006
G1 X135.378 Y80.126 E.0168
M73 P4 R81
G1 X183.874 Y128.622 E2.15382
G1 X183.874 Y129.156 E.01677
G1 X134.844 Y80.126 E2.17754
G1 X134.31 Y80.126 E.01677
G1 X183.874 Y129.69 E2.20126
G1 X183.874 Y129.874 E.00578
G1 X183.523 Y129.874 E.01102
G1 X133.776 Y80.126 E2.20941
G1 X133.242 Y80.126 E.01677
G1 X182.989 Y129.874 E2.20941
G1 X182.455 Y129.874 E.01677
G1 X132.708 Y80.126 E2.20941
G1 X132.174 Y80.126 E.01677
G1 X181.921 Y129.874 E2.20941
G1 X181.387 Y129.874 E.01677
G1 X131.64 Y80.126 E2.20941
G1 X131.105 Y80.126 E.0168
G1 X180.853 Y129.874 E2.20943
G1 X180.318 Y129.874 E.0168
M73 Q4 S81
G1 X130.571 Y80.126 E2.20941
G1 X130.037 Y80.126 E.01677
G1 X179.784 Y129.874 E2.20941
G1 X179.25 Y129.874 E.01677
M73 P5 R81
G1 X129.503 Y80.126 E2.20941
G1 X128.969 Y80.126 E.01677
M73 Q5 S81
G1 X178.716 Y129.874 E2.20941
G1 X178.182 Y129.874 E.01677
G1 X128.435 Y80.126 E2.20941
G1 X127.901 Y80.126 E.01677
G1 X177.648 Y129.874 E2.20941
G1 X177.114 Y129.874 E.01677
G1 X127.367 Y80.126 E2.20941
G1 X126.832 Y80.126 E.0168
G1 X176.58 Y129.874 E2.20943
G1 X176.045 Y129.874 E.0168
M73 P5 R80
G1 X126.298 Y80.126 E2.20941
G1 X125.764 Y80.126 E.01677
G1 X175.511 Y129.874 E2.20941
G1 X174.977 Y129.874 E.01677
G1 X125.23 Y80.126 E2.20941
G1 X124.696 Y80.126 E.01677
G1 X174.443 Y129.874 E2.20941
G1 X173.909 Y129.874 E.01677
G1 X124.162 Y80.126 E2.20941
G1 X123.628 Y80.126 E.01677
G1 X173.375 Y129.874 E2.20941
G1 X172.841 Y129.874 E.01677
G1 X123.094 Y80.126 E2.20941
G1 X122.56 Y80.126 E.01677
G1 X172.307 Y129.874 E2.20941
G1 X171.772 Y129.874 E.0168
G1 X122.025 Y80.126 E2.20941
G1 X121.491 Y80.126 E.01677
M73 P6 R80
M73 Q6 S80
G1 X171.238 Y129.874 E2.20941
G1 X170.704 Y129.874 E.01677
G1 X120.957 Y80.126 E2.20941
G1 X120.423 Y80.126 E.01677
G1 X170.17 Y129.874 E2.20941
G1 X169.636 Y129.874 E.01677
G1 X119.889 Y80.126 E2.20941
G1 X119.355 Y80.126 E.01677
G1 X169.102 Y129.874 E2.20941
G1 X168.568 Y129.874 E.01677
G1 X118.821 Y80.126 E2.20941
G1 X118.287 Y80.126 E.01677
G1 X168.034 Y129.874 E2.20941
G1 X167.5 Y129.874 E.01677
G1 X117.752 Y80.126 E2.20943
G1 X117.218 Y80.126 E.01677
M73 P6 R79
G1 X166.965 Y129.874 E2.20941
G1 X166.431 Y129.874 E.01677
G1 X116.684 Y80.126 E2.20941
G1 X116.15 Y80.126 E.01677
G1 X165.897 Y129.874 E2.20941
G1 X165.363 Y129.874 E.01677
G1 X115.616 Y80.126 E2.20941
G1 X115.082 Y80.126 E.01677
G1 X164.829 Y129.874 E2.20941
G1 X164.295 Y129.874 E.01677
G1 X114.548 Y80.126 E2.20941
G1 X114.014 Y80.126 E.01677
M73 P7 R79
G1 X163.761 Y129.874 E2.20941
G1 X163.227 Y129.874 E.01677
M73 Q7 S80
G1 X113.479 Y80.126 E2.20943
G1 X112.945 Y80.126 E.01677
G1 X162.692 Y129.874 E2.20941
G1 X162.158 Y129.874 E.01677
M73 Q7 S79
G1 X112.411 Y80.126 E2.20941
G1 X111.877 Y80.126 E.01677
G1 X161.624 Y129.874 E2.20941
G1 X161.09 Y129.874 E.01677
G1 X111.343 Y80.126 E2.20941
G1 X110.809 Y80.126 E.01677
G1 X160.556 Y129.874 E2.20941
G1 X160.022 Y129.874 E.01677
G1 X110.275 Y80.126 E2.20941
G1 X109.741 Y80.126 E.01677
G1 X159.488 Y129.874 E2.20941
G1 X158.954 Y129.874 E.01677
G1 X109.206 Y80.126 E2.20943
G1 X108.672 Y80.126 E.01677
G1 X158.419 Y129.874 E2.20941
G1 X157.885 Y129.874 E.01677
M73 P7 R78
G1 X108.138 Y80.126 E2.20941
G1 X107.604 Y80.126 E.01677
G1 X157.351 Y129.874 E2.20941
G1 X156.817 Y129.874 E.01677
G1 X107.07 Y80.126 E2.20941
G1 X106.536 Y80.126 E.01677
G1 X156.283 Y129.874 E2.20941
G1 X155.749 Y129.874 E.01677
M73 P8 R78
M73 Q8 S79
G1 X106.002 Y80.126 E2.20941
G1 X105.468 Y80.126 E.01677
G1 X155.215 Y129.874 E2.20941
G1 X154.681 Y129.874 E.01677
G1 X104.934 Y80.126 E2.20941
G1 X104.399 Y80.126 E.0168
G1 X154.146 Y129.874 E2.20941
G1 X153.612 Y129.874 E.01677
G1 X103.865 Y80.126 E2.20941
G1 X103.331 Y80.126 E.01677
M73 Q8 S78
G1 X153.078 Y129.874 E2.20941
G1 X152.544 Y129.874 E.01677
G1 X102.797 Y80.126 E2.20941
G1 X102.263 Y80.126 E.01677
G1 X152.01 Y129.874 E2.20941
G1 X151.476 Y129.874 E.01677
G1 X101.729 Y80.126 E2.20941
G1 X101.195 Y80.126 E.01677
G1 X150.942 Y129.874 E2.20941
G1 X150.408 Y129.874 E.01677
G1 X100.661 Y80.126 E2.20941
G1 X100.126 Y80.126 E.0168
G1 X149.874 Y129.874 E2.20943
G1 X149.339 Y129.874 E.0168
G1 X99.592 Y80.126 E2.20941
G1 X99.058 Y80.126 E.01677
M73 P8 R77
G1 X148.805 Y129.874 E2.20941
G1 X148.271 Y129.874 E.01677
M73 P9 R77
G1 X98.524 Y80.126 E2.20941
G1 X97.99 Y80.126 E.01677
M73 Q9 S78
G1 X147.737 Y129.874 E2.20941
G1 X147.203 Y129.874 E.01677
G1 X97.456 Y80.126 E2.20941
G1 X96.922 Y80.126 E.01677
G1 X146.669 Y129.874 E2.20941
G1 X146.135 Y129.874 E.01677
G1 X96.388 Y80.126 E2.20941
G1 X95.853 Y80.126 E.0168
G1 X145.601 Y129.874 E2.20943
G1 X145.066 Y129.874 E.0168
G1 X95.319 Y80.126 E2.20941
G1 X94.785 Y80.126 E.01677
G1 X144.532 Y129.874 E2.20941
G1 X143.998 Y129.874 E.01677
M73 Q9 S77
G1 X94.251 Y80.126 E2.20941
G1 X93.717 Y80.126 E.01677
G1 X143.464 Y129.874 E2.20941
G1 X142.93 Y129.874 E.01677
G1 X93.183 Y80.126 E2.20941
G1 X92.649 Y80.126 E.01677
G1 X142.396 Y129.874 E2.20941
G1 X141.862 Y129.874 E.01677
G1 X92.115 Y80.126 E2.20941
G1 X91.58 Y80.126 E.0168
G1 X141.328 Y129.874 E2.20943
G1 X140.793 Y129.874 E.0168
G1 X91.046 Y80.126 E2.20941
G1 X90.512 Y80.126 E.01677
M73 P10 R77
M73 Q10 S77
G1 X140.259 Y129.874 E2.20941
G1 X139.725 Y129.874 E.01677
M73 P10 R76
G1 X89.978 Y80.126 E2.20941
G1 X89.444 Y80.126 E.01677
G1 X139.191 Y129.874 E2.20941
G1 X138.657 Y129.874 E.01677
G1 X88.91 Y80.126 E2.20941
G1 X88.376 Y80.126 E.01677
G1 X138.123 Y129.874 E2.20941
G1 X137.589 Y129.874 E.01677
G1 X87.842 Y80.126 E2.20941
G1 X87.307 Y80.126 E.0168
G1 X137.055 Y129.874 E2.20943
G1 X136.52 Y129.874 E.0168
G1 X86.773 Y80.126 E2.20941
G1 X86.239 Y80.126 E.01677
G1 X135.986 Y129.874 E2.20941
G1 X135.452 Y129.874 E.01677
G1 X85.705 Y80.126 E2.20941
G1 X85.171 Y80.126 E.01677
M73 Q10 S76
G1 X134.918 Y129.874 E2.20941
G1 X134.384 Y129.874 E.01677
G1 X84.637 Y80.126 E2.20941
G1 X84.103 Y80.126 E.01677
G1 X133.85 Y129.874 E2.20941
G1 X133.316 Y129.874 E.01677
G1 X83.569 Y80.126 E2.20941
G1 X83.035 Y80.126 E.01677
M73 P11 R76
G1 X132.782 Y129.874 E2.20941
G1 X132.247 Y129.874 E.0168
M73 Q11 S76
G1 X82.5 Y80.126 E2.20941
G1 X81.966 Y80.126 E.01677
G1 X131.713 Y129.874 E2.20941
G1 X131.179 Y129.874 E.01677
G1 X81.432 Y80.126 E2.20941
G1 X80.898 Y80.126 E.01677
M73 P11 R75
G1 X130.645 Y129.874 E2.20941
G1 X130.111 Y129.874 E.01677
G1 X80.364 Y80.126 E2.20941
G1 X79.83 Y80.126 E.01677
G1 X129.577 Y129.874 E2.20941
G1 X129.043 Y129.874 E.01677
G1 X79.296 Y80.126 E2.20941
G1 X78.762 Y80.126 E.01677
G1 X128.509 Y129.874 E2.20941
G1 X127.975 Y129.874 E.01677
G1 X78.227 Y80.126 E2.20943
G1 X77.693 Y80.126 E.01677
G1 X127.44 Y129.874 E2.20941
G1 X126.906 Y129.874 E.01677
G1 X77.159 Y80.126 E2.20941
G1 X76.625 Y80.126 E.01677
M73 Q11 S75
G1 X126.372 Y129.874 E2.20941
G1 X125.838 Y129.874 E.01677
G1 X76.091 Y80.126 E2.20941
G1 X75.557 Y80.126 E.01677
M73 P12 R75
G1 X125.304 Y129.874 E2.20941
G1 X124.77 Y129.874 E.01677
M73 Q12 S75
G1 X75.023 Y80.126 E2.20941
G1 X74.489 Y80.126 E.01677
G1 X124.236 Y129.874 E2.20941
G1 X123.702 Y129.874 E.01677
G1 X73.954 Y80.126 E2.20943
G1 X73.42 Y80.126 E.01677
G1 X123.167 Y129.874 E2.20941
